svgs/light/users-between-lines.svg

<svg xmlns="http://www.w3.org/2000/svg" viewBox="0 0 640 512"><!--! Font Awesome Pro 6.4.0 by @fontawesome - https://fontawesome.com License - https://fontawesome.com/license (Commercial License) Copyright 2023 Fonticons, Inc. --><path d="M0 16C0 7.2 7.2 0 16 0H624c8.8 0 16 7.2 16 16s-7.2 16-16 16H16C7.2 32 0 24.8 0 16zM0 496c0-8.8 7.2-16 16-16H624c8.8 0 16 7.2 16 16s-7.2 16-16 16H16c-8.8 0-16-7.2-16-16zM147.2 192a32 32 0 1 0 0-64 32 32 0 1 0 0 64zm0-96a64 64 0 1 1 0 128 64 64 0 1 1 0-128zm352 96a32 32 0 1 0 0-64 32 32 0 1 0 0 64zm0-96a64 64 0 1 1 0 128 64 64 0 1 1 0-128zM369.6 320h-96c-35.3 0-64 28.7-64 64h224c0-35.3-28.7-64-64-64zm-192 64c0-53 43-96 96-96h96c53 0 96 43 96 96c0 17.7-14.3 32-32 32h-224c-17.7 0-32-14.3-32-32zm144-160a48 48 0 1 0 0-96 48 48 0 1 0 0 96zm0-128a80 80 0 1 1 0 160 80 80 0 1 1 0-160zM64 320v16c0 8.8-7.2 16-16 16s-16-7.2-16-16V320c0-35.3 28.7-64 64-64h88c8.8 0 16 7.2 16 16s-7.2 16-16 16H96c-17.7 0-32 14.3-32 32zm480-32H456c-8.8 0-16-7.2-16-16s7.2-16 16-16h88c35.3 0 64 28.7 64 64v16c0 8.8-7.2 16-16 16s-16-7.2-16-16V320c0-17.7-14.3-32-32-32z"/></svg>

<svg xmlns="http://www.w3.org/2000/svg" viewBox="0 0 640 512"><!--! Font Awesome Pro 6.3.0 by @fontawesome - https://fontawesome.com License - https://fontawesome.com/license (Commercial License) Copyright 2023 Fonticons, Inc. --><path d="M0 16C0 7.164 7.164 0 16 0H624C632.8 0 640 7.164 640 16C640 24.84 632.8 32 624 32H16C7.164 32 0 24.84 0 16zM0 496C0 487.2 7.164 480 16 480H624C632.8 480 640 487.2 640 496C640 504.8 632.8 512 624 512H16C7.164 512 0 504.8 0 496zM83.2 160C83.2 124.7 111.9 96 147.2 96C182.5 96 211.2 124.7 211.2 160C211.2 195.3 182.5 224 147.2 224C111.9 224 83.2 195.3 83.2 160V160zM147.2 192C164.9 192 179.2 177.7 179.2 160C179.2 142.3 164.9 128 147.2 128C129.5 128 115.2 142.3 115.2 160C115.2 177.7 129.5 192 147.2 192zM435.2 160C435.2 124.7 463.9 96 499.2 96C534.5 96 563.2 124.7 563.2 160C563.2 195.3 534.5 224 499.2 224C463.9 224 435.2 195.3 435.2 160V160zM499.2 192C516.9 192 531.2 177.7 531.2 160C531.2 142.3 516.9 128 499.2 128C481.5 128 467.2 142.3 467.2 160C467.2 177.7 481.5 192 499.2 192V192zM177.6 384C177.6 330.1 220.6 288 273.6 288H369.6C422.6 288 465.6 330.1 465.6 384C465.6 401.7 451.3 416 433.6 416H209.6C191.9 416 177.6 401.7 177.6 384V384zM273.6 320C238.3 320 209.6 348.7 209.6 384H433.6C433.6 348.7 404.9 320 369.6 320H273.6zM241.6 176C241.6 131.8 277.4 96 321.6 96C365.8 96 401.6 131.8 401.6 176C401.6 220.2 365.8 256 321.6 256C277.4 256 241.6 220.2 241.6 176V176zM321.6 224C348.1 224 369.6 202.5 369.6 176C369.6 149.5 348.1 128 321.6 128C295.1 128 273.6 149.5 273.6 176C273.6 202.5 295.1 224 321.6 224zM64 336C64 344.8 56.84 352 48 352C39.16 352 32 344.8 32 336V320C32 284.7 60.65 256 96 256H184C192.8 256 200 263.2 200 272C200 280.8 192.8 288 184 288H96C78.33 288 64 302.3 64 320V336zM456 288C447.2 288 440 280.8 440 272C440 263.2 447.2 256 456 256H544C579.3 256 608 284.7 608 320V336C608 344.8 600.8 352 592 352C583.2 352 576 344.8 576 336V320C576 302.3 561.7 288 544 288H456z"/></svg>
